.local/share/icons/Gruvbox-Plus-Dark/mimetypes/scalable/application-x-krita.svg

<svg width="256" height="256" viewBox="0 0 256 256" fill="none" xmlns="http://www.w3.org/2000/svg">
<g opacity="0.4" filter="url(#filter0_f)">
<path d="M55.0839 15.5636H155.608L216.009 75.7129L216.011 224.609C216.011 233.52 208.749 240.737 199.838 240.737H55.0838C46.1734 240.737 39 233.564 39 224.654V31.6474C39 22.737 46.1734 15.5636 55.0838 15.5636H55.0839Z" fill="#282828"/>
</g>
<path d="M55.0839 15H155.608L216.009 75.1493L216.011 224.045C216.011 232.956 208.749 240.174 199.838 240.174H55.0838C46.1734 240.174 39 233 39 224.09V31.0838C39 22.1734 46.1734 15 55.0838 15H55.0839Z" fill="#ebdbb2"/>
<g opacity="0.4">
<path d="M55.0839 15H155.608L216.009 75.1493L216.011 224.045C216.011 232.956 208.749 240.174 199.838 240.174H55.0838C46.1734 240.174 39 233 39 224.09V31.0838C39 22.1734 46.1734 15 55.0838 15H55.0839Z" fill="url(#paint0_linear)"/>
<path d="M199.927 15H99.4032L39.0025 75.1493L39 224.045C38.9999 232.956 46.2623 240.174 55.1727 240.174H199.927C208.838 240.174 216.011 233 216.011 224.09V31.0838C216.011 22.1734 208.838 15 199.927 15H199.927Z" fill="url(#paint1_linear)"/>
<path d="M55.0839 15H155.608L216.009 75.1493L216.011 224.045C216.011 232.956 208.749 240.174 199.838 240.174H55.0838C46.1734 240.174 39 233 39 224.09V31.0838C39 22.1734 46.1734 15 55.0838 15H55.0839Z" fill="url(#paint2_linear)"/>
<path d="M55.0839 15H155.608L216.009 75.1493L216.011 224.045C216.011 232.956 208.749 240.174 199.838 240.174H55.0838C46.1734 240.174 39 233 39 224.09V31.0838C39 22.1734 46.1734 15 55.0838 15H55.0839Z" fill="url(#paint3_linear)"/>
</g>
<path d="M42.5 27.5V51.5L67 75.5L140.67 147.696C143.961 151.123 149.428 151.177 152.788 147.816C156.149 144.456 156.093 138.992 152.665 135.7L87.9784 71.0137L42.5 27.5Z" fill="url(#paint4_linear)"/>
<path d="M106.966 90.6911C104.716 90.692 102.517 91.3641 100.65 92.6215C98.7841 93.8789 97.3353 95.6645 96.4893 97.7498C95.6434 99.8351 95.4387 102.125 95.9015 104.328C96.3643 106.53 97.4735 108.544 99.0873 110.113L138.67 149.695C139.717 150.76 140.965 151.607 142.341 152.187C143.717 152.767 145.194 153.068 146.687 153.075C148.18 153.081 149.66 152.791 151.041 152.223C152.421 151.654 153.676 150.818 154.732 149.762C155.788 148.706 156.624 147.452 157.192 146.071C157.761 144.69 158.05 143.21 158.044 141.717C158.038 140.224 157.736 138.747 157.156 137.371C156.576 135.995 155.73 134.747 154.665 133.7L115.082 94.1176C114.027 93.0326 112.766 92.1703 111.371 91.5817C109.977 90.9931 108.479 90.6903 106.966 90.6911Z" fill="url(#paint5_linear)"/>
<g filter="url(#filter1_f)">
<path d="M87.7524 121.781C83.9646 121.859 74.9617 129.981 73.7575 133.465C72.4513 137.244 74.0658 136.012 75.0201 138.516C75.9743 141.02 77.3276 143.901 80.0714 148.145C82.8152 152.39 87.7017 159.22 92.068 163.456C96.4344 167.692 101.466 170.709 105.801 173.559C110.136 176.409 114.182 178.911 117.955 180.662C121.729 182.413 123.538 183.146 128.216 184.293C132.893 185.439 141.585 187.109 146.053 186.818C150.52 186.527 152.204 186.037 154.892 185.082C157.58 184.126 160.12 183.221 162.153 181.136C164.186 179.05 164.994 175.392 165.626 172.611C166.258 169.831 166.647 167.61 166.099 164.719C165.551 161.829 165.499 159.478 163.732 156.984C161.964 154.49 159.04 151.63 155.839 149.881C152.639 148.132 146.751 146.726 142.738 146.093C138.725 145.459 132.635 145.619 131.846 145.935C131.057 146.251 125.276 146.932 123.954 148.461C122.631 149.989 123.442 151.22 123.322 152.249C123.202 153.278 123.507 153.744 123.164 154.617C122.821 155.49 122.24 156.53 121.112 157.142C119.985 157.755 117.639 157.458 116.692 157.616C115.745 157.774 113.148 156.626 110.536 155.248C107.925 153.87 104.076 151.516 101.381 148.934C98.6868 146.352 95.6984 140.726 94.5935 139.937C93.4885 139.148 88.6741 123.836 88.5952 123.52C88.5162 123.205 91.6437 123.434 88.5952 121.942C88.357 121.825 88.0734 121.774 87.7524 121.781V121.781ZM109.685 138.814C108.424 138.832 107.439 139.271 106.904 140.055C106.302 140.937 106.316 142.185 106.941 143.527C107.567 144.868 108.753 146.192 110.24 147.207C111.726 148.222 113.391 148.845 114.868 148.94C116.345 149.035 117.513 148.592 118.115 147.711C118.717 146.829 118.703 145.58 118.078 144.239C117.452 142.898 116.266 141.574 114.779 140.559C113.963 140.001 113.084 139.556 112.204 139.255C111.324 138.953 110.464 138.803 109.685 138.814V138.814Z" fill="url(#paint6_linear)"/>
</g>
<path d="M141.013 107.77C125.398 107.77 112.739 120.428 112.739 136.043C112.739 151.658 125.398 164.317 141.013 164.317H169.286V136.043C169.286 120.428 156.628 107.77 141.013 107.77Z" fill="url(#paint7_radial)"/>
<path d="M138.185 117.665C140.666 117.665 142.677 119.677 142.677 122.157C142.677 124.638 140.666 126.649 138.185 126.649C135.704 126.649 133.693 124.638 133.693 122.157C133.693 119.677 135.704 117.665 138.185 117.665Z" fill="#7c6f64"/>
<path fill-rule="evenodd" clip-rule="evenodd" d="M155.608 20.3191H55.0839C49.1112 20.3191 44.3191 25.1111 44.3191 31.0838V224.09C44.3191 230.063 49.1111 234.855 55.0838 234.855H199.838C205.83 234.855 210.692 229.999 210.692 224.046V75.1493L155.608 20.3191ZM155.608 15H55.0839C46.1735 15 39 22.1734 39 31.0838V224.09C39 233 46.1734 240.174 55.0838 240.174H199.838C208.749 240.174 216.011 232.956 216.011 224.045L216.009 75.1493L155.608 15Z" fill="url(#paint8_linear)"/>
<path opacity="0.25" d="M155.608 17V61.2306C155.608 70.141 162.867 77.1605 171.777 77.1605L216.009 77.1493V75.1493L155.608 17Z" fill="#282828"/>
<path d="M155.608 15V59.2306C155.608 68.141 162.867 75.1605 171.777 75.1605L216.009 75.1493L155.608 15Z" fill="url(#paint9_linear)"/>
<defs>
<filter id="filter0_f" x="23.8778" y="0.441412" width="207.255" height="255.418" filterUnits="userSpaceOnUse" color-interpolation-filters="sRGB">
<feFlood flood-opacity="0" result="BackgroundImageFix"/>
<feBlend mode="normal" in="SourceGraphic" in2="BackgroundImageFix" result="shape"/>
<feGaussianBlur stdDeviation="7.5611" result="effect1_foregroundBlur"/>
</filter>
<filter id="filter1_f" x="62.0795" y="110.592" width="115.469" height="87.4479" filterUnits="userSpaceOnUse" color-interpolation-filters="sRGB">
<feFlood flood-opacity="0" result="BackgroundImageFix"/>
<feBlend mode="normal" in="SourceGraphic" in2="BackgroundImageFix" result="shape"/>
<feGaussianBlur stdDeviation="5.59411" result="effect1_foregroundBlur"/>
</filter>
<linearGradient id="paint0_linear" x1="-nan" y1="-nan" x2="-nan" y2="-nan" gradientUnits="userSpaceOnUse">
<stop stop-color="#d3869b" stop-opacity="0.988235"/>
<stop offset="1" stop-color="#b16286" stop-opacity="0.01"/>
</linearGradient>
<linearGradient id="paint1_linear" x1="146.922" y1="144.107" x2="216.655" y2="217.744" gradientUnits="userSpaceOnUse">
<stop stop-color="#fabd2f" stop-opacity="0"/>
<stop offset="1" stop-color="#b57614" stop-opacity="0.992157"/>
</linearGradient>
<linearGradient id="paint2_linear" x1="123.153" y1="142.785" x2="51.7998" y2="200.789" gradientUnits="userSpaceOnUse">
<stop stop-color="#83a598" stop-opacity="0"/>
<stop offset="1" stop-color="#458588" stop-opacity="0.886275"/>
</linearGradient>
<linearGradient id="paint3_linear" x1="125.231" y1="-19.7723" x2="129.229" y2="155.306" gradientUnits="userSpaceOnUse">
<stop stop-color="#d3869b" stop-opacity="0.988235"/>
<stop offset="1" stop-color="#b16286" stop-opacity="0.01"/>
</linearGradient>
<linearGradient id="paint4_linear" x1="79.7126" y1="73.0331" x2="73.3034" y2="79.4424" gradientUnits="userSpaceOnUse">
<stop stop-color="#fabd2f"/>
<stop offset="1" stop-color="#d79921"/>
</linearGradient>
<linearGradient id="paint5_linear" x1="126.055" y1="135.336" x2="133.181" y2="128.211" gradientUnits="userSpaceOnUse">
<stop stop-color="#d5c4a1"/>
<stop offset="1" stop-color="#ebdbb2"/>
</linearGradient>
<linearGradient id="paint6_linear" x1="160.243" y1="181.15" x2="85.226" y2="144.213" gradientUnits="userSpaceOnUse">
<stop stop-color="#83a598"/>
<stop offset="0.544919" stop-color="#83a598" stop-opacity="0.498039"/>
<stop offset="1" stop-color="#458588" stop-opacity="0"/>
</linearGradient>
<radialGradient id="paint7_radial" cx="0" cy="0" r="1" gradientUnits="userSpaceOnUse" gradientTransform="translate(139.031 122.068) scale(46.5516)">
<stop stop-color="#504945"/>
<stop offset="1"/>
</radialGradient>
<linearGradient id="paint8_linear" x1="39" y1="15" x2="39" y2="240.174" gradientUnits="userSpaceOnUse">
<stop offset="1e-07" stop-color="#d3869b"/>
<stop offset="0.5" stop-color="#b16286"/>
<stop offset="1" stop-color="#8f3f71"/>
</linearGradient>
<linearGradient id="paint9_linear" x1="155.608" y1="15" x2="155.608" y2="75.1605" gradientUnits="userSpaceOnUse">
<stop offset="1e-07" stop-color="#d3869b"/>
<stop offset="0.5" stop-color="#b16286"/>
<stop offset="1" stop-color="#8f3f71"/>
</linearGradient>
</defs>
</svg>

<svg width="256" height="256" fill="none" version="1.1" viewBox="0 0 256 256" xmlns="http://www.w3.org/2000/svg">
  <path d="m55.08 15h100.5l60.4 60.15 2e-3 148.9c0 8.911-7.262 16.13-16.17 16.13h-144.8c-8.91 0-16.08-7.174-16.08-16.08v-193c0-8.91 7.173-16.08 16.08-16.08h1e-4z" fill="#ebdbb2"/>
  <g opacity=".4">
    <path d="m55.08 15h100.5l60.4 60.15 2e-3 148.9c0 8.911-7.262 16.13-16.17 16.13h-144.8c-8.91 0-16.08-7.174-16.08-16.08v-193c0-8.91 7.173-16.08 16.08-16.08z" fill="url(#paint0_linear)"/>
    <path d="m199.9 15h-100.5l-60.4 60.15-0.0025 148.9c-1e-4 8.911 7.262 16.13 16.17 16.13h144.8c8.911 0 16.08-7.174 16.08-16.08v-193c0-8.91-7.173-16.08-16.08-16.08z" fill="url(#paint1_linear)"/>
    <path d="m55.08 15h100.5l60.4 60.15 2e-3 148.9c0 8.911-7.262 16.13-16.17 16.13h-144.8c-8.91 0-16.08-7.174-16.08-16.08v-193c0-8.91 7.173-16.08 16.08-16.08z" fill="url(#paint2_linear)"/>
    <path d="m55.08 15h100.5l60.4 60.15 2e-3 148.9c0 8.911-7.262 16.13-16.17 16.13h-144.8c-8.91 0-16.08-7.174-16.08-16.08v-193c0-8.91 7.173-16.08 16.08-16.08z" fill="url(#paint3_linear)"/>
  </g>
  <path d="m42.5 27.5v24l24.5 24 73.67 72.2c3.291 3.427 8.758 3.481 12.12 0.12 3.361-3.36 3.305-8.824-0.123-12.12l-64.69-64.69-45.48-43.51z" fill="url(#paint4_linear)"/>
  <path d="m107 90.69c-2.25 9e-4 -4.449 0.673-6.316 1.93-1.866 1.257-3.315 3.043-4.161 5.128-0.8459 2.085-1.051 4.375-0.5878 6.578 0.4628 2.202 1.572 4.216 3.186 5.785l39.58 39.58c1.047 1.065 2.295 1.912 3.671 2.492s2.853 0.881 4.346 0.888c1.493 6e-3 2.973-0.284 4.354-0.852 1.38-0.569 2.635-1.405 3.691-2.461s1.892-2.31 2.46-3.691c0.569-1.381 0.858-2.861 0.852-4.354s-0.308-2.97-0.888-4.346-1.426-2.624-2.491-3.671l-39.58-39.58c-1.055-1.085-2.316-1.947-3.711-2.536-1.394-0.5886-2.892-0.8914-4.405-0.8906z" fill="url(#paint5_linear)"/>
  <path d="m87.75 121.8c-3.788 0.078-12.79 8.2-13.99 11.68-1.306 3.779 0.3083 2.547 1.263 5.051 0.9542 2.504 2.308 5.385 5.051 9.629 2.744 4.245 7.63 11.08 12 15.31 4.366 4.236 9.398 7.253 13.73 10.1s8.381 5.352 12.15 7.103c3.774 1.751 5.583 2.484 10.26 3.631 4.677 1.146 13.37 2.816 17.84 2.525 4.467-0.291 6.151-0.781 8.839-1.736 2.688-0.956 5.228-1.861 7.261-3.946 2.033-2.086 2.841-5.744 3.473-8.525 0.632-2.78 1.021-5.001 0.473-7.892-0.548-2.89-0.6-5.241-2.367-7.735-1.768-2.494-4.692-5.354-7.893-7.103-3.2-1.749-9.088-3.155-13.1-3.788-4.013-0.634-10.1-0.474-10.89-0.158s-6.57 0.997-7.892 2.526c-1.323 1.528-0.512 2.759-0.632 3.788s0.185 1.495-0.158 2.368-0.924 1.913-2.052 2.525c-1.127 0.613-3.473 0.316-4.42 0.474s-3.544-0.99-6.156-2.368c-2.611-1.378-6.46-3.732-9.155-6.314-2.694-2.582-5.683-8.208-6.788-8.997s-5.919-16.1-5.998-16.42c-0.079-0.315 3.048-0.086 0-1.578-0.2382-0.117-0.5218-0.168-0.8428-0.161zm21.93 17.03c-1.261 0.018-2.246 0.457-2.781 1.241-0.602 0.882-0.588 2.13 0.037 3.472 0.626 1.341 1.812 2.665 3.299 3.68 1.486 1.015 3.151 1.638 4.628 1.733s2.645-0.348 3.247-1.229c0.602-0.882 0.588-2.131-0.037-3.472-0.626-1.341-1.812-2.665-3.299-3.68-0.816-0.558-1.695-1.003-2.575-1.304-0.88-0.302-1.74-0.452-2.519-0.441z" fill="url(#paint6_linear)"/>
  <path d="m141 107.8c-15.62 0-28.27 12.66-28.27 28.27s12.66 28.27 28.27 28.27h28.27v-28.27c0-15.62-12.66-28.27-28.27-28.27z" fill="url(#paint7_radial)"/>
  <path d="m138.2 117.7c2.481 0 4.492 2.012 4.492 4.492 0 2.481-2.011 4.492-4.492 4.492s-4.492-2.011-4.492-4.492c0-2.48 2.011-4.492 4.492-4.492z" fill="#7c6f64"/>
  <path d="m155.6 20.32h-100.5c-5.973 0-10.76 4.792-10.76 10.76v193c0 5.973 4.792 10.76 10.76 10.76h144.8c5.992 0 10.85-4.856 10.85-10.81v-148.9l-55.08-54.83zm0-5.319h-100.5c-8.91 0-16.08 7.173-16.08 16.08v193c0 8.91 7.173 16.08 16.08 16.08h144.8c8.911 0 16.17-7.218 16.17-16.13l-2e-3 -148.9-60.4-60.15z" clip-rule="evenodd" fill="url(#paint8_linear)" fill-rule="evenodd"/>
  <path d="m155.6 17v44.23c0 8.91 7.259 15.93 16.17 15.93l44.23-0.0112v-2l-60.4-58.15z" fill="#282828" opacity=".25"/>
  <path d="m155.6 15v44.23c0 8.91 7.259 15.93 16.17 15.93l44.23-0.0112-60.4-60.15z" fill="url(#paint9_linear)"/>
  <defs>
    <linearGradient id="paint0_linear" x1="39" x2="216" y1="99.8" y2="101.5" gradientUnits="userSpaceOnUse">
      <stop stop-color="#d3869b" stop-opacity=".9882" offset="0"/>
      <stop stop-color="#b16286" stop-opacity=".01" offset="1"/>
    </linearGradient>
    <linearGradient id="paint1_linear" x1="146.9" x2="210.7" y1="144.1" y2="224" gradientUnits="userSpaceOnUse">
      <stop stop-color="#fabd2f" stop-opacity="0" offset="0"/>
      <stop stop-color="#b57614" stop-opacity=".9922" offset="1"/>
    </linearGradient>
    <linearGradient id="paint2_linear" x1="123.2" x2="51.8" y1="142.8" y2="200.8" gradientUnits="userSpaceOnUse">
      <stop stop-color="#83a598" stop-opacity="0" offset="0"/>
      <stop stop-color="#458588" stop-opacity=".8863" offset="1"/>
    </linearGradient>
    <linearGradient id="paint3_linear" x1="127.5" x2="129.2" y1="20.32" y2="155.3" gradientUnits="userSpaceOnUse">
      <stop stop-color="#d3869b" stop-opacity=".9882" offset="0"/>
      <stop stop-color="#b16286" stop-opacity=".01" offset="1"/>
    </linearGradient>
    <linearGradient id="paint4_linear" x1="79.71" x2="73.3" y1="73.03" y2="79.44" gradientUnits="userSpaceOnUse">
      <stop stop-color="#fabd2f" offset="0"/>
      <stop stop-color="#d79921" offset="1"/>
    </linearGradient>
    <linearGradient id="paint5_linear" x1="126.1" x2="133.2" y1="135.3" y2="128.2" gradientUnits="userSpaceOnUse">
      <stop stop-color="#d5c4a1" offset="0"/>
      <stop stop-color="#ebdbb2" offset="1"/>
    </linearGradient>
    <linearGradient id="paint6_linear" x1="160.2" x2="85.23" y1="181.2" y2="144.2" gradientUnits="userSpaceOnUse">
      <stop stop-color="#83a598" offset="0"/>
      <stop stop-color="#83a598" stop-opacity=".498" offset=".5449"/>
      <stop stop-color="#458588" stop-opacity="0" offset="1"/>
    </linearGradient>
    <radialGradient id="paint7_radial" cx="0" cy="0" r="1" gradientTransform="translate(139 122.1) scale(46.55)" gradientUnits="userSpaceOnUse">
      <stop stop-color="#504945" offset="0"/>
      <stop stop-color="#282828" offset="1"/>
    </radialGradient>
    <linearGradient id="paint8_linear" x1="39" x2="39" y1="15" y2="240.2" gradientUnits="userSpaceOnUse">
      <stop stop-color="#d3869b" offset="1e-7"/>
      <stop stop-color="#b16286" offset=".5"/>
      <stop stop-color="#8f3f71" offset="1"/>
    </linearGradient>
    <linearGradient id="paint9_linear" x1="155.6" x2="155.6" y1="15" y2="75.16" gradientUnits="userSpaceOnUse">
      <stop stop-color="#d3869b" offset="1e-7"/>
      <stop stop-color="#b16286" offset=".5"/>
      <stop stop-color="#8f3f71" offset="1"/>
    </linearGradient>
  </defs>
</svg>
